svg/fluentui-system-icons/ic_fluent_double_swipe_up_20_filled.svg

<svg width="20" height="20" viewBox="0 0 20 20" fill="none" xmlns="http://www.w3.org/2000/svg">
<path d="M6.28033 2.21967C5.98744 1.92678 5.51256 1.92678 5.21967 2.21967L2.71967 4.71967C2.42678 5.01256 2.42678 5.48744 2.71967 5.78033C3.01256 6.07322 3.48744 6.07322 3.78033 5.78033L5 4.56066V14.25C5 14.6642 5.33579 15 5.75 15C6.16421 15 6.5 14.6642 6.5 14.25V4.56066L7.71967 5.78033C8.01256 6.07322 8.48744 6.07322 8.78033 5.78033C9.07322 5.48744 9.07322 5.01256 8.78033 4.71967L6.28033 2.21967ZM2 14.25C2 12.8109 2.81055 11.5612 4 10.9325V12.8356C3.6873 13.222 3.5 13.7141 3.5 14.25C3.5 15.4926 4.50736 16.5 5.75 16.5C6.99264 16.5 8 15.4926 8 14.25C8 13.7141 7.8127 13.222 7.5 12.8356V10.9325C8.68945 11.5612 9.5 12.8109 9.5 14.25C9.5 16.321 7.82107 18 5.75 18C3.67893 18 2 16.321 2 14.25ZM12.5 10.9325C11.3105 11.5612 10.5 12.8109 10.5 14.25C10.5 16.321 12.1789 18 14.25 18C16.3211 18 18 16.321 18 14.25C18 12.8109 17.1895 11.5612 16 10.9325V12.8356C16.3127 13.222 16.5 13.7141 16.5 14.25C16.5 15.4926 15.4926 16.5 14.25 16.5C13.0074 16.5 12 15.4926 12 14.25C12 13.7141 12.1873 13.222 12.5 12.8356V10.9325ZM14.7803 2.21967C14.4874 1.92678 14.0126 1.92678 13.7197 2.21967L11.2197 4.71967C10.9268 5.01256 10.9268 5.48744 11.2197 5.78033C11.5126 6.07322 11.9874 6.07322 12.2803 5.78033L13.5 4.56066V14.25C13.5 14.6642 13.8358 15 14.25 15C14.6642 15 15 14.6642 15 14.25V4.56066L16.2197 5.78033C16.5126 6.07322 16.9874 6.07322 17.2803 5.78033C17.5732 5.48744 17.5732 5.01256 17.2803 4.71967L14.7803 2.21967Z" fill="#212121"/>
</svg>

<svg xmlns="http://www.w3.org/2000/svg" width="20" height="20"><path d="M6.28 2.22a.75.75 0 0 0-1.06 0l-2.5 2.5a.75.75 0 0 0 1.06 1.06L5 4.56v9.69a.75.75 0 0 0 1.5 0V4.56l1.22 1.22a.75.75 0 0 0 1.06-1.06l-2.5-2.5ZM2 14.25c0-1.44.81-2.689 2-3.318v1.904a2.25 2.25 0 1 0 3.5 0v-1.904A3.75 3.75 0 0 1 5.75 18 3.75 3.75 0 0 1 2 14.25Zm10.5-3.318a3.75 3.75 0 1 0 3.5 0v1.904a2.25 2.25 0 1 1-3.5 0v-1.904Zm2.28-8.712a.75.75 0 0 0-1.06 0l-2.5 2.5a.75.75 0 0 0 1.06 1.06l1.22-1.22v9.69a.75.75 0 0 0 1.5 0V4.56l1.22 1.22a.75.75 0 1 0 1.06-1.06l-2.5-2.5Z"/></svg>
